X: 28012
T: Moving Cloud, The
R: reel
M: 4/4
K: Gmajor
|:DGBG EGcG|DGBG AG (3EFG|c3A (3Bcd gb|aged BAGE|
DGBG EGcG|DGBG AG (3EFG|cBAc BAGB|ADEF G3z:|
|:d2 gd (3Bcd gd|dg g2 afgd|e2 (3gfe aege|e2 (3gfe bege
d2 gd (3Bcd gd|dg g2 egdB|cBAc BAGB|ADEF G3z:|
|:Bd d2 ed (3Bcd|Bd d2 edcB|ce e2 fe e2|fefe fedc
Bd (3Bcd ed (3Bcd|Bd d2 edcB|cBAc BAGB|ADEF G3z:|

